X: 0
T: Si Bheag Si Mhor
C: Turlough O'Carolan
M: 3/4
L: 1/8
K: Dmaj
de |: "D"f3e d2 | "D"d2 de d2 | "G"B4 A2 | "D"F4 A2 |"G"BA Bc d2 | "Em"e4 de | "A"f2 f2 e2 |
 "D"d4 f2 | "G"B4 e2 | "A"A4 d2 | "Bm"F4 E2 | "Bm"D4 f2 |"G"B4 e2 | "A"A4 dc | "G"d6 | "D"d4 de :|
|: "D"f2 fe d2 | "Em"ed ef a2 | "G"b4 a2 | "Bm"f4 ed |"A"e4 a2 | "Bm"f4 e2 | "G"d4 B2 | B4 BA | 
"F#m/A"F4 E2 | "Bm"D4 f2 | "G"B4 e2 | "A"A4 a2 | "G"ba gf ed | "A"e4 dc | "G"d6 |1 "D"d4 de :|2 "D"d4 |]